.github/onyx-logo-light.svg

<svg xmlns="http://www.w3.org/2000/svg" xml:space="preserve" style="fill-rule:evenodd;clip-rule:evenodd;stroke-linejoin:round;stroke-miterlimit:2" viewBox="0 0 343 459"><path d="M488.25 279.64c0 119.9-23.44 149.73-130.01 149.73-106.58 0-129.49-29.84-129.49-149.73 0-120.43 22.91-150.27 129.49-150.27 106.56 0 130.01 29.84 130.01 150.27m-195.02 0c0 75.13 7.99 93.79 65.01 93.79 57.01 0 65-18.66 65-93.79 0-75.66-8-94.31-65-94.31-57.02 0-65.01 18.65-65.01 94.31" style="fill:#32b8c6;fill-rule:nonzero" transform="translate(-187.2 -129.37)"/><path d="M487.49 311.47c.49-9.87.76-20.36.76-31.83 0-120.43-23.44-150.27-130.02-150.27-1.11 0-22.59 0-38.61 1.84-11.26 17.04-18.64 73.83-23.05 94.32 1-6.19 4.3-15.26 6.57-19.41 4.98-9.12 11.74-13.44 20.01-16.4 13.95-4.99 29.63-4.4 35.09-4.4 57.02 0 65.01 18.65 65.01 94.31" style="fill:url(#a);fill-rule:nonzero" transform="translate(-187.2 -129.37)"/><path d="M325.16 507.09c0 10.87-2.24 13.58-12.16 13.58s-12.15-2.72-12.15-13.58 2.29-13.58 12.15-13.58 12.16 2.67 12.16 13.58m-17.21 0c0 6 .71 7.48 5.05 7.48s5.1-1.48 5.1-7.48-.71-7.48-5.1-7.48-5.05 1.48-5.05 7.48m46.66-2.15v14.73c0 .53-.29.76-.76.76h-5.63c-.48 0-.71-.24-.71-.76v-12.92c0-6.82-.71-7.15-5.1-7.15h-4.34v20.06c0 .53-.24.76-.71.76h-5.67c-.48 0-.71-.24-.71-.76v-24.64c0-.57.24-.62.71-.71 3.19-.72 7.82-.81 11.39-.81 9.15 0 11.54 1.71 11.54 11.44zm29.68-11.2c.48 0 .71.24.71.71v25.41c-.05 7.15-1.43 10.44-11.68 10.44-3.43 0-6.24-.19-8.96-.67-.43-.05-.67-.24-.67-.76v-3.62c0-.53.19-.71.67-.71h8.34c4.2 0 5.2-.95 5.2-4.1v-.29c-2.05.38-3.81.53-5.82.53-8.68 0-11.25-3.34-11.25-12.3v-13.92c0-.48.24-.71.71-.71h5.67c.48 0 .71.24.71.71v12.58c0 6.15.9 7.48 5.72 7.48 1.19 0 2.91-.05 4.24-.29v-19.78c0-.48.24-.71.71-.71zm30.49 0c.57 0 .71.38.33.86l-8.2 11.87 9.06 13.06c.34.48.19.91-.38.91h-6.86c-.33 0-.57-.19-.76-.48l-5.38-8.01-5.44 8.01c-.14.29-.38.48-.76.48h-6.82c-.57 0-.71-.43-.38-.91l9.06-13.06-8.24-11.87c-.38-.48-.19-.86.38-.86h6.82c.38 0 .62.14.86.43l4.53 6.77 4.53-6.77c.19-.29.48-.43.86-.43h6.82zm-206.5 48.51c.48 0 .71.24.71.71v33.99c0 .53-.29.72-.76.76-4.2.67-6.34.81-9.92.81-9.25 0-11.11-2.62-11.11-13.21s1.86-13.35 10.87-13.35c2.72 0 4.91.14 6.34.34v-9.34c0-.48.24-.71.71-.71zm-9.92 13.73c-5.91 0-6.58 1.81-6.58 9.29s.62 9.25 6.53 9.25c1.86 0 4.19-.14 6.1-.38v-18.16zm38.83 8.58v1.38c0 .95-.24 1.34-1.72 1.34h-15.16c.14 5.82 1.24 7.24 6.34 7.24h7.82c.48 0 .71.24.71.71v2.1c0 .43-.24.71-.67.76-2.43.33-5.05.43-7.96.43-8.96 0-10.87-2.62-10.87-13.25s1.9-13.3 10.87-13.3 10.53 2.53 10.63 12.58zm-16.92-1h12.35c-.1-6.05-1.1-7.58-6.05-7.58s-6.2 1.53-6.29 7.58zm39.21-11.16c.43.05.67.34.67.76v2.05c0 .48-.24.71-.71.71h-8.87c-2.19 0-3.48.76-3.48 2.48v.62c0 1.34.62 2.48 2.95 3.34l6.34 2.53c4.38 1.67 4.77 4.1 4.77 6.72v.53c0 5.34-3.19 6.39-9.63 6.39-4.15 0-7.91-.34-8.72-.43-.57-.05-.71-.34-.71-.72v-2.1c0-.48.24-.71.71-.71h8.82c3.81 0 5.01-.43 5.01-2.48v-.57c0-1.38-.57-2.29-2.76-3.19l-6.77-2.57c-3.67-1.43-4.58-4.2-4.58-6.82v-1c0-5.24 4.58-5.96 9.68-5.96 2.1 0 4.53.1 7.29.43zm12.96-7.82c0 1.81-.95 2.81-2.81 2.81s-2.81-1-2.81-2.81 1-2.76 2.81-2.76 2.81.95 2.81 2.76m-1.24 7.63c.48 0 .71.24.71.71v24.64c0 .48-.24.71-.71.71h-3.15c-.48 0-.71-.24-.71-.71v-24.64c0-.48.24-.71.71-.71zm28.45.57c.48.05.76.29.76.81v22.31c-.05 9.34-1.86 12.06-11.01 12.06-1.86 0-4.43-.1-6.91-.43-.43-.05-.62-.34-.62-.76v-2.05c0-.48.19-.71.66-.71h6.77c5.34 0 6.53-1.29 6.53-5.58v-.29c-2.05.33-3.91.38-6.29.38-9.01 0-10.92-2.67-10.92-13.35s1.95-13.2 11.16-13.2c4.53 0 7.82.38 9.87.81m-9.92 3.19c-5.86 0-6.53 1.86-6.53 9.25s.71 9.29 6.63 9.29c1.86 0 4.1-.1 6-.34v-18.21h-6.1zm39.79 7.16v14.44c0 .48-.34.71-.81.71h-3.05c-.48 0-.71-.24-.71-.71v-14.06c0-7.29-1.43-7.53-6.01-7.53h-6.53v21.59c0 .48-.24.71-.71.71h-3.15c-.48 0-.71-.24-.71-.71V553.5c0-.62.24-.67.71-.76 3.72-.71 7.63-.76 9.92-.76 8.53 0 11.06 1.05 11.06 11.16zm35.15-10.73c.43.05.66.34.66.76v2.05c0 .48-.24.71-.71.71h-8.87c-2.19 0-3.48.76-3.48 2.48v.62c0 1.34.62 2.48 2.96 3.34l6.34 2.53c4.39 1.67 4.77 4.1 4.77 6.72v.53c0 5.34-3.19 6.39-9.63 6.39-4.15 0-7.91-.34-8.72-.43-.57-.05-.71-.34-.71-.72v-2.1c0-.48.24-.71.71-.71h8.82c3.81 0 5-.43 5-2.48v-.57c0-1.38-.57-2.29-2.76-3.19l-6.77-2.57c-3.67-1.43-4.58-4.2-4.58-6.82v-1c0-5.24 4.58-5.96 9.68-5.96 2.1 0 4.53.1 7.29.43zm28.69-.19c.48 0 .71.24.71.71v22.98c-.05 9.34-1.86 12.06-11.01 12.06-2.95 0-4.72-.1-7.19-.43-.43-.05-.67-.34-.67-.76v-2.05c0-.48.24-.71.71-.71h7.05c5.34 0 6.53-1.29 6.53-5.58v-.29c-2.05.33-3.91.38-6.29.38-9.01 0-10.91-2.72-10.91-13.01v-12.58c0-.48.24-.71.71-.71h3.1c.48 0 .71.24.71.71v12.3c0 7.43.76 9.29 6.68 9.29 1.86 0 4.1-.1 6-.34v-21.26c0-.48.24-.71.71-.71zm24.34.19c.43.05.66.34.66.76v2.05c0 .48-.24.71-.71.71h-8.87c-2.19 0-3.48.76-3.48 2.48v.62c0 1.34.62 2.48 2.96 3.34l6.34 2.53c4.39 1.67 4.77 4.1 4.77 6.72v.53c0 5.34-3.19 6.39-9.63 6.39-4.15 0-7.91-.34-8.72-.43-.57-.05-.71-.34-.71-.72v-2.1c0-.48.24-.71.71-.71h8.82c3.81 0 5-.43 5-2.48v-.57c0-1.38-.57-2.29-2.76-3.19l-6.77-2.57c-3.67-1.43-4.58-4.2-4.58-6.82v-1c0-5.24 4.58-5.96 9.68-5.96 2.1 0 4.53.1 7.29.43zm12.9-7.39c.53-.14.81.1.81.62v6.62h5c.53 0 .76.24.76.71v2.24c0 .48-.24.71-.76.71h-5v16.01c0 2.1.57 2.58 3.1 2.58h2.29c.53 0 .76.19.76.67v2.29c0 .43-.24.67-.72.76-.95.24-2.24.29-2.67.29-3.43 0-7.34-.05-7.34-5.43v-17.16h-2.67c-.48 0-.71-.24-.71-.71v-2.24c0-.48.24-.71.71-.71h2.67v-5.72c0-.48.19-.67.62-.76l3.14-.76zm32.88 19.55v1.38c0 .95-.24 1.34-1.72 1.34H446.6c.14 5.82 1.24 7.24 6.34 7.24h7.82c.48 0 .71.24.71.71v2.1c0 .43-.24.71-.67.76-2.43.33-5.05.43-7.96.43-8.96 0-10.87-2.62-10.87-13.25s1.9-13.3 10.87-13.3 10.53 2.53 10.63 12.58zm-16.92-1h12.35c-.1-6.05-1.1-7.58-6.05-7.58s-6.2 1.53-6.29 7.58zm58.18-.63-.1 14.63c0 .48-.24.71-.71.71h-3.05c-.48 0-.71-.24-.71-.71V563.5c0-7.29-1.43-7.58-5.91-7.58-1.95 0-4 .14-5.58.43.57 1.62.76 3.72.76 6.77l-.1 14.44c0 .57-.19.71-.62.71h-3.14c-.48 0-.71-.24-.71-.71v-14.35c0-7.01-1.43-7.24-5.91-7.24h-4.77v21.59c0 .48-.24.71-.72.71h-3.14c-.48 0-.71-.24-.71-.71v-24.07c0-.57.24-.67.71-.76 2.48-.48 5.77-.76 7.96-.76 3 0 6.15.62 7.91 1.43 2.43-.86 5.48-1.48 7.68-1.48 8.24 0 10.87 1.14 10.87 11.01zm23.38-10.53c.43.05.66.34.66.76v2.05c0 .48-.24.71-.71.71h-8.87c-2.19 0-3.48.76-3.48 2.48v.62c0 1.34.62 2.48 2.96 3.34l6.34 2.53c4.39 1.67 4.77 4.1 4.77 6.72v.53c0 5.34-3.19 6.39-9.63 6.39-4.15 0-7.91-.34-8.72-.43-.57-.05-.71-.34-.71-.72v-2.1c0-.48.24-.71.71-.71h8.82c3.81 0 5-.43 5-2.48v-.57c0-1.38-.57-2.29-2.76-3.19l-6.77-2.57c-3.67-1.43-4.58-4.2-4.58-6.82v-1c0-5.24 4.58-5.96 9.68-5.96 2.1 0 4.53.1 7.29.43z" style="fill:#fff;fill-rule:nonzero" transform="translate(-187.2 -129.37)"/><defs><linearGradient id="a" x1="0" x2="1" y1="0" y2="0" gradientTransform="rotate(45 .723 451.15)scale(246.16)" gradientUnits="userSpaceOnUse"><stop offset="0" style="stop-color:#018da0;stop-opacity:1"/><stop offset=".14" style="stop-color:#018da0;stop-opacity:1"/><stop offset=".77" style="stop-color:#32b8c6;stop-opacity:1"/><stop offset="1" style="stop-color:#32b8c6;stop-opacity:1"/></linearGradient></defs></svg>

<?xml version="1.0" encoding="UTF-8" standalone="no"?>
<!DOCTYPE svg PUBLIC "-//W3C//DTD SVG 1.1//EN" "http://www.w3.org/Graphics/SVG/1.1/DTD/svg11.dtd">
<svg width="100%" height="100%" viewBox="0 0 343 459" version="1.1" xmlns="http://www.w3.org/2000/svg" xmlns:xlink="http://www.w3.org/1999/xlink" xml:space="preserve" style="fill-rule:evenodd;clip-rule:evenodd;stroke-linejoin:round;stroke-miterlimit:2;">
    <g transform="matrix(1,0,0,1,-32,-32.17)">
        <g transform="matrix(1,0,0,1,-155.2,-97.2)">
            <g transform="matrix(1.00002,0,0,1.00002,-0.00408208,-0.00282104)">
                <path d="M488.25,279.64C488.25,399.54 464.81,429.37 358.24,429.37C251.66,429.37 228.75,399.53 228.75,279.64C228.75,159.21 251.66,129.37 358.24,129.37C464.8,129.37 488.25,159.21 488.25,279.64ZM293.23,279.64C293.23,354.77 301.22,373.43 358.24,373.43C415.25,373.43 423.24,354.77 423.24,279.64C423.24,203.98 415.24,185.33 358.24,185.33C301.22,185.33 293.23,203.98 293.23,279.64Z" style="fill:rgb(50,184,198);fill-rule:nonzero;"/>
            </g>
        </g>
        <g transform="matrix(1,0,0,1,-155.2,-97.2)">
            <g transform="matrix(1.00002,0,0,1.00002,-0.00408208,-0.00282104)">
                <path d="M487.49,311.47C487.98,301.6 488.25,291.11 488.25,279.64C488.25,159.21 464.81,129.37 358.23,129.37C357.12,129.37 335.64,129.37 319.62,131.21C308.36,148.25 300.98,205.04 296.57,225.53C297.57,219.34 300.87,210.27 303.14,206.12C308.12,197 314.88,192.68 323.15,189.72C337.1,184.73 352.78,185.32 358.24,185.32C415.26,185.32 423.25,203.97 423.25,279.63" style="fill:url(#_Linear1);fill-rule:nonzero;"/>
            </g>
        </g>
        <g transform="matrix(1,0,0,1,-155.2,-97.2)">
            <g transform="matrix(1.00002,0,0,1.00002,-0.00408208,-0.00282104)">
                <path d="M320.42,507.09C320.42,517.96 318.18,520.67 308.26,520.67C298.34,520.67 296.11,517.95 296.11,507.09C296.11,496.23 298.4,493.51 308.26,493.51C318.12,493.51 320.42,496.18 320.42,507.09ZM303.21,507.09C303.21,513.09 303.92,514.57 308.26,514.57C312.6,514.57 313.36,513.09 313.36,507.09C313.36,501.09 312.65,499.61 308.26,499.61C303.87,499.61 303.21,501.09 303.21,507.09Z" style="fill:white;fill-rule:nonzero;"/>
            </g>
        </g>
        <g transform="matrix(1,0,0,1,-155.2,-97.2)">
            <g transform="matrix(1.00002,0,0,1.00002,-0.00408208,-0.00282104)">
                <path d="M349.86,504.94L349.86,519.67C349.86,520.2 349.57,520.43 349.1,520.43L343.47,520.43C342.99,520.43 342.76,520.19 342.76,519.67L342.76,506.75C342.76,499.93 342.05,499.6 337.66,499.6L333.32,499.6L333.32,519.66C333.32,520.19 333.08,520.42 332.61,520.42L326.94,520.42C326.46,520.42 326.23,520.18 326.23,519.66L326.23,495.02C326.23,494.45 326.47,494.4 326.94,494.31C330.13,493.59 334.76,493.5 338.33,493.5C347.48,493.5 349.87,495.21 349.87,504.94L349.86,504.94Z" style="fill:white;fill-rule:nonzero;"/>
            </g>
        </g>
        <g transform="matrix(1,0,0,1,-155.2,-97.2)">
            <g transform="matrix(1.00002,0,0,1.00002,-0.00408208,-0.00282104)">
                <path d="M379.54,493.74C380.02,493.74 380.25,493.98 380.25,494.45L380.25,519.86C380.2,527.01 378.82,530.3 368.57,530.3C365.14,530.3 362.33,530.11 359.61,529.63C359.18,529.58 358.94,529.39 358.94,528.87L358.94,525.25C358.94,524.72 359.13,524.54 359.61,524.54L367.95,524.54C372.15,524.54 373.15,523.59 373.15,520.44L373.15,520.15C371.1,520.53 369.34,520.68 367.33,520.68C358.65,520.68 356.08,517.34 356.08,508.38L356.08,494.46C356.08,493.98 356.32,493.75 356.79,493.75L362.46,493.75C362.94,493.75 363.17,493.99 363.17,494.46L363.17,507.04C363.17,513.19 364.07,514.52 368.89,514.52C370.08,514.52 371.8,514.47 373.13,514.23L373.13,494.45C373.13,493.97 373.37,493.74 373.84,493.74L379.54,493.74Z" style="fill:white;fill-rule:nonzero;"/>
            </g>
        </g>
        <g transform="matrix(1,0,0,1,-155.2,-97.2)">
            <g transform="matrix(1.00002,0,0,1.00002,-0.00408208,-0.00282104)">
                <path d="M410.03,493.74C410.6,493.74 410.74,494.12 410.36,494.6L402.16,506.47L411.22,519.53C411.56,520.01 411.41,520.44 410.84,520.44L403.98,520.44C403.65,520.44 403.41,520.25 403.22,519.96L397.84,511.95L392.4,519.96C392.26,520.25 392.02,520.44 391.64,520.44L384.82,520.44C384.25,520.44 384.11,520.01 384.44,519.53L393.5,506.47L385.26,494.6C384.88,494.12 385.07,493.74 385.64,493.74L392.46,493.74C392.84,493.74 393.08,493.88 393.32,494.17L397.85,500.94L402.38,494.17C402.57,493.88 402.86,493.74 403.24,493.74L410.06,493.74L410.03,493.74Z" style="fill:white;fill-rule:nonzero;"/>
            </g>
        </g>
        <g transform="matrix(1,0,0,1,-155.2,-97.2)">
            <g transform="matrix(1.00002,0,0,1.00002,-0.00408208,-0.00282104)">
                <path d="M208.28,542.25C208.76,542.25 208.99,542.49 208.99,542.96L208.99,576.95C208.99,577.48 208.7,577.67 208.23,577.71C204.03,578.38 201.89,578.52 198.31,578.52C189.06,578.52 187.2,575.9 187.2,565.31C187.2,554.72 189.06,551.96 198.07,551.96C200.79,551.96 202.98,552.1 204.41,552.3L204.41,542.96C204.41,542.48 204.65,542.25 205.12,542.25L208.28,542.25ZM198.36,555.98C192.45,555.98 191.78,557.79 191.78,565.27C191.78,572.75 192.4,574.52 198.31,574.52C200.17,574.52 202.5,574.38 204.41,574.14L204.41,555.98L198.36,555.98Z" style="fill:white;fill-rule:nonzero;"/>
            </g>
        </g>
        <g transform="matrix(1,0,0,1,-155.2,-97.2)">
            <g transform="matrix(1.00002,0,0,1.00002,-0.00408208,-0.00282104)">
                <path d="M237.19,564.56L237.19,565.94C237.19,566.89 236.95,567.28 235.47,567.28L220.31,567.28C220.45,573.1 221.55,574.52 226.65,574.52L234.47,574.52C234.95,574.52 235.18,574.76 235.18,575.23L235.18,577.33C235.18,577.76 234.94,578.04 234.51,578.09C232.08,578.42 229.46,578.52 226.55,578.52C217.59,578.52 215.68,575.9 215.68,565.27C215.68,554.64 217.58,551.97 226.55,551.97C235.52,551.97 237.08,554.5 237.18,564.55L237.19,564.56ZM220.27,563.56L232.62,563.56C232.52,557.51 231.52,555.98 226.57,555.98C221.62,555.98 220.37,557.51 220.28,563.56L220.27,563.56Z" style="fill:white;fill-rule:nonzero;"/>
            </g>
        </g>
        <g transform="matrix(1,0,0,1,-155.2,-97.2)">
            <g transform="matrix(1.00002,0,0,1.00002,-0.00408208,-0.00282104)">
                <path d="M259.48,552.4C259.91,552.45 260.15,552.74 260.15,553.16L260.15,555.21C260.15,555.69 259.91,555.92 259.44,555.92L250.57,555.92C248.38,555.92 247.09,556.68 247.09,558.4L247.09,559.02C247.09,560.36 247.71,561.5 250.04,562.36L256.38,564.89C260.76,566.56 261.15,568.99 261.15,571.61L261.15,572.14C261.15,577.48 257.96,578.53 251.52,578.53C247.37,578.53 243.61,578.19 242.8,578.1C242.23,578.05 242.09,577.76 242.09,577.38L242.09,575.28C242.09,574.8 242.33,574.57 242.8,574.57L251.62,574.57C255.43,574.57 256.63,574.14 256.63,572.09L256.63,571.52C256.63,570.14 256.06,569.23 253.87,568.33L247.1,565.76C243.43,564.33 242.52,561.56 242.52,558.94L242.52,557.94C242.52,552.7 247.1,551.98 252.2,551.98C254.3,551.98 256.73,552.08 259.49,552.41L259.48,552.4Z" style="fill:white;fill-rule:nonzero;"/>
            </g>
        </g>
        <g transform="matrix(1,0,0,1,-155.2,-97.2)">
            <g transform="matrix(1.00002,0,0,1.00002,-0.00408208,-0.00282104)">
                <path d="M272.44,544.58C272.44,546.39 271.49,547.39 269.63,547.39C267.77,547.39 266.82,546.39 266.82,544.58C266.82,542.77 267.82,541.82 269.63,541.82C271.44,541.82 272.44,542.77 272.44,544.58ZM271.2,552.21C271.68,552.21 271.91,552.45 271.91,552.92L271.91,577.56C271.91,578.04 271.67,578.27 271.2,578.27L268.05,578.27C267.57,578.27 267.34,578.03 267.34,577.56L267.34,552.92C267.34,552.44 267.58,552.21 268.05,552.21L271.2,552.21Z" style="fill:white;fill-rule:nonzero;"/>
            </g>
        </g>
        <g transform="matrix(1,0,0,1,-155.2,-97.2)">
            <g transform="matrix(1.00002,0,0,1.00002,-0.00408208,-0.00282104)">
                <path d="M299.65,552.78C300.13,552.83 300.41,553.07 300.41,553.59L300.41,575.9C300.36,585.24 298.55,587.96 289.4,587.96C287.54,587.96 284.97,587.86 282.49,587.53C282.06,587.48 281.87,587.19 281.87,586.77L281.87,584.72C281.87,584.24 282.06,584.01 282.53,584.01L289.3,584.01C294.64,584.01 295.83,582.72 295.83,578.43L295.83,578.14C293.78,578.47 291.92,578.52 289.54,578.52C280.53,578.52 278.62,575.85 278.62,565.17C278.62,554.49 280.57,551.97 289.78,551.97C294.31,551.97 297.6,552.35 299.65,552.78ZM289.73,555.97C283.87,555.97 283.2,557.83 283.2,565.22C283.2,572.61 283.91,574.51 289.83,574.51C291.69,574.51 293.93,574.41 295.83,574.17L295.83,555.96L289.73,555.96L289.73,555.97Z" style="fill:white;fill-rule:nonzero;"/>
            </g>
        </g>
        <g transform="matrix(1,0,0,1,-155.2,-97.2)">
            <g transform="matrix(1.00002,0,0,1.00002,-0.00408208,-0.00282104)">
                <path d="M329.52,563.13L329.52,577.57C329.52,578.05 329.18,578.28 328.71,578.28L325.66,578.28C325.18,578.28 324.95,578.04 324.95,577.57L324.95,563.51C324.95,556.22 323.52,555.98 318.94,555.98L312.41,555.98L312.41,577.57C312.41,578.05 312.17,578.28 311.7,578.28L308.55,578.28C308.07,578.28 307.84,578.04 307.84,577.57L307.84,553.5C307.84,552.88 308.08,552.83 308.55,552.74C312.27,552.03 316.18,551.98 318.47,551.98C327,551.98 329.53,553.03 329.53,563.14L329.52,563.13Z" style="fill:white;fill-rule:nonzero;"/>
            </g>
        </g>
        <g transform="matrix(1,0,0,1,-155.2,-97.2)">
            <g transform="matrix(1.00002,0,0,1.00002,-0.00408208,-0.00282104)">
                <path d="M364.67,552.4C365.1,552.45 365.33,552.74 365.33,553.16L365.33,555.21C365.33,555.69 365.09,555.92 364.62,555.92L355.75,555.92C353.56,555.92 352.27,556.68 352.27,558.4L352.27,559.02C352.27,560.36 352.89,561.5 355.23,562.36L361.57,564.89C365.96,566.56 366.34,568.99 366.34,571.61L366.34,572.14C366.34,577.48 363.15,578.53 356.71,578.53C352.56,578.53 348.8,578.19 347.99,578.1C347.42,578.05 347.28,577.76 347.28,577.38L347.28,575.28C347.28,574.8 347.52,574.57 347.99,574.57L356.81,574.57C360.62,574.57 361.81,574.14 361.81,572.09L361.81,571.52C361.81,570.14 361.24,569.23 359.05,568.33L352.28,565.76C348.61,564.33 347.7,561.56 347.7,558.94L347.7,557.94C347.7,552.7 352.28,551.98 357.38,551.98C359.48,551.98 361.91,552.08 364.67,552.41L364.67,552.4Z" style="fill:white;fill-rule:nonzero;"/>
            </g>
        </g>
        <g transform="matrix(1,0,0,1,-155.2,-97.2)">
            <g transform="matrix(1.00002,0,0,1.00002,-0.00408208,-0.00282104)">
                <path d="M393.36,552.21C393.84,552.21 394.07,552.45 394.07,552.92L394.07,575.9C394.02,585.24 392.21,587.96 383.06,587.96C380.11,587.96 378.34,587.86 375.87,587.53C375.44,587.48 375.2,587.19 375.2,586.77L375.2,584.72C375.2,584.24 375.44,584.01 375.91,584.01L382.96,584.01C388.3,584.01 389.49,582.72 389.49,578.43L389.49,578.14C387.44,578.47 385.58,578.52 383.2,578.52C374.19,578.52 372.29,575.8 372.29,565.51L372.29,552.93C372.29,552.45 372.53,552.22 373,552.22L376.1,552.22C376.58,552.22 376.81,552.46 376.81,552.93L376.81,565.23C376.81,572.66 377.57,574.52 383.49,574.52C385.35,574.52 387.59,574.42 389.49,574.18L389.49,552.92C389.49,552.44 389.73,552.21 390.2,552.21L393.36,552.21Z" style="fill:white;fill-rule:nonzero;"/>
            </g>
        </g>
        <g transform="matrix(1,0,0,1,-155.2,-97.2)">
            <g transform="matrix(1.00002,0,0,1.00002,-0.00408208,-0.00282104)">
                <path d="M417.7,552.4C418.13,552.45 418.36,552.74 418.36,553.16L418.36,555.21C418.36,555.69 418.12,555.92 417.65,555.92L408.78,555.92C406.59,555.92 405.3,556.68 405.3,558.4L405.3,559.02C405.3,560.36 405.92,561.5 408.26,562.36L414.6,564.89C418.99,566.56 419.37,568.99 419.37,571.61L419.37,572.14C419.37,577.48 416.18,578.53 409.74,578.53C405.59,578.53 401.83,578.19 401.02,578.1C400.45,578.05 400.31,577.76 400.31,577.38L400.31,575.28C400.31,574.8 400.55,574.57 401.02,574.57L409.84,574.57C413.65,574.57 414.84,574.14 414.84,572.09L414.84,571.52C414.84,570.14 414.27,569.23 412.08,568.33L405.31,565.76C401.64,564.33 400.73,561.56 400.73,558.94L400.73,557.94C400.73,552.7 405.31,551.98 410.41,551.98C412.51,551.98 414.94,552.08 417.7,552.41L417.7,552.4Z" style="fill:white;fill-rule:nonzero;"/>
            </g>
        </g>
        <g transform="matrix(1,0,0,1,-155.2,-97.2)">
            <g transform="matrix(1.00002,0,0,1.00002,-0.00408208,-0.00282104)">
                <path d="M430.6,545.01C431.13,544.87 431.41,545.11 431.41,545.63L431.41,552.25L436.41,552.25C436.94,552.25 437.17,552.49 437.17,552.96L437.17,555.2C437.17,555.68 436.93,555.91 436.41,555.91L431.41,555.91L431.41,571.92C431.41,574.02 431.98,574.5 434.51,574.5L436.8,574.5C437.33,574.5 437.56,574.69 437.56,575.17L437.56,577.46C437.56,577.89 437.32,578.13 436.84,578.22C435.89,578.46 434.6,578.51 434.17,578.51C430.74,578.51 426.83,578.46 426.83,573.08L426.83,555.92L424.16,555.92C423.68,555.92 423.45,555.68 423.45,555.21L423.45,552.97C423.45,552.49 423.69,552.26 424.16,552.26L426.83,552.26L426.83,546.54C426.83,546.06 427.02,545.87 427.45,545.78L430.59,545.02L430.6,545.01Z" style="fill:white;fill-rule:nonzero;"/>
            </g>
        </g>
        <g transform="matrix(1,0,0,1,-155.2,-97.2)">
            <g transform="matrix(1.00002,0,0,1.00002,-0.00408208,-0.00282104)">
                <path d="M463.48,564.56L463.48,565.94C463.48,566.89 463.24,567.28 461.76,567.28L446.6,567.28C446.74,573.1 447.84,574.52 452.94,574.52L460.76,574.52C461.24,574.52 461.47,574.76 461.47,575.23L461.47,577.33C461.47,577.76 461.23,578.04 460.8,578.09C458.37,578.42 455.75,578.52 452.84,578.52C443.88,578.52 441.97,575.9 441.97,565.27C441.97,554.64 443.87,551.97 452.84,551.97C461.81,551.97 463.37,554.5 463.47,564.55L463.48,564.56ZM446.56,563.56L458.91,563.56C458.81,557.51 457.81,555.98 452.86,555.98C447.91,555.98 446.66,557.51 446.57,563.56L446.56,563.56Z" style="fill:white;fill-rule:nonzero;"/>
            </g>
        </g>
        <g transform="matrix(1,0,0,1,-155.2,-97.2)">
            <g transform="matrix(1.00002,0,0,1.00002,-0.00408208,-0.00282104)">
                <path d="M504.74,562.93L504.64,577.56C504.64,578.04 504.4,578.27 503.93,578.27L500.88,578.27C500.4,578.27 500.17,578.03 500.17,577.56L500.17,563.5C500.17,556.21 498.74,555.92 494.26,555.92C492.31,555.92 490.26,556.06 488.68,556.35C489.25,557.97 489.44,560.07 489.44,563.12L489.34,577.56C489.34,578.13 489.15,578.27 488.72,578.27L485.58,578.27C485.1,578.27 484.87,578.03 484.87,577.56L484.87,563.21C484.87,556.2 483.44,555.97 478.96,555.97L474.19,555.97L474.19,577.56C474.19,578.04 473.95,578.27 473.47,578.27L470.33,578.27C469.85,578.27 469.62,578.03 469.62,577.56L469.62,553.49C469.62,552.92 469.86,552.82 470.33,552.73C472.81,552.25 476.1,551.97 478.29,551.97C481.29,551.97 484.44,552.59 486.2,553.4C488.63,552.54 491.68,551.92 493.88,551.92C502.12,551.92 504.75,553.06 504.75,562.93L504.74,562.93Z" style="fill:white;fill-rule:nonzero;"/>
            </g>
        </g>
        <g transform="matrix(1,0,0,1,-155.2,-97.2)">
            <g transform="matrix(1.00002,0,0,1.00002,-0.00408208,-0.00282104)">
                <path d="M528.12,552.4C528.55,552.45 528.78,552.74 528.78,553.16L528.78,555.21C528.78,555.69 528.54,555.92 528.07,555.92L519.2,555.92C517.01,555.92 515.72,556.68 515.72,558.4L515.72,559.02C515.72,560.36 516.34,561.5 518.68,562.36L525.02,564.89C529.41,566.56 529.79,568.99 529.79,571.61L529.79,572.14C529.79,577.48 526.6,578.53 520.16,578.53C516.01,578.53 512.25,578.19 511.44,578.1C510.87,578.05 510.73,577.76 510.73,577.38L510.73,575.28C510.73,574.8 510.97,574.57 511.44,574.57L520.26,574.57C524.07,574.57 525.26,574.14 525.26,572.09L525.26,571.52C525.26,570.14 524.69,569.23 522.5,568.33L515.73,565.76C512.06,564.33 511.15,561.56 511.15,558.94L511.15,557.94C511.15,552.7 515.73,551.98 520.83,551.98C522.93,551.98 525.36,552.08 528.12,552.41L528.12,552.4Z" style="fill:white;fill-rule:nonzero;"/>
            </g>
        </g>
    </g>
    <defs>
        <linearGradient id="_Linear1" x1="0" y1="0" x2="1" y2="0" gradientUnits="userSpaceOnUse" gradientTransform="matrix(174.06,174.06,-174.06,174.06,319.22,131.63)"><stop offset="0" style="stop-color:rgb(1,141,160);stop-opacity:1"/><stop offset="0.14" style="stop-color:rgb(1,141,160);stop-opacity:1"/><stop offset="0.77" style="stop-color:rgb(50,184,198);stop-opacity:1"/><stop offset="1" style="stop-color:rgb(50,184,198);stop-opacity:1"/></linearGradient>
    </defs>
</svg>
